archdroid-icon-theme/Archdroid-Yellow/actions/scalable/document-save-as.svg

<svg xmlns="http://www.w3.org/2000/svg" fill="#FFEB3B" viewBox="0 0 48 48"><path d="m10 0c-2.21 0-4 1.79-4 4v28c0 2.21 1.79 4 4 4h28c2.21 0 4-1.79 4-4v-24l-8-8h-24m0 4h20v8h-20v-8m14 16c3.31 0 6 2.69 6 6 0 3.31-2.69 6-6 6-3.31 0-6-2.69-6-6 0-3.31 2.69-6 6-6m-12 20c-2.21 0-4 1.79-4 4 0 2.21 1.79 4 4 4 2.21 0 4-1.79 4-4 0-2.21-1.79-4-4-4m12 0c-2.21 0-4 1.79-4 4 0 2.21 1.79 4 4 4 2.21 0 4-1.79 4-4 0-2.21-1.79-4-4-4m12 0c-2.21 0-4 1.79-4 4 0 2.21 1.79 4 4 4 2.21 0 4-1.79 4-4 0-2.21-1.79-4-4-4"/></svg>

<?xml version="1.0" encoding="UTF-8" standalone="no"?>
<svg
   xmlns:dc="http://purl.org/dc/elements/1.1/"
   xmlns:cc="http://creativecommons.org/ns#"
   xmlns:rdf="http://www.w3.org/1999/02/22-rdf-syntax-ns#"
   xmlns:svg="http://www.w3.org/2000/svg"
   xmlns="http://www.w3.org/2000/svg"
   xmlns:sodipodi="http://sodipodi.sourceforge.net/DTD/sodipodi-0.dtd"
   xmlns:inkscape="http://www.inkscape.org/namespaces/inkscape"
   fill="#FFEB3B"
   width="48"
   height="48"
   viewBox="0 0 48 48"
   id="svg2"
   version="1.1"
   inkscape:version="0.91 r13725"
   sodipodi:docname="document-save-as.svg">
  <metadata
     id="metadata10">
    <rdf:RDF>
      <cc:Work
         rdf:about="">
        <dc:format>image/svg+xml</dc:format>
        <dc:type
           rdf:resource="http://purl.org/dc/dcmitype/StillImage" />
        <dc:title></dc:title>
      </cc:Work>
    </rdf:RDF>
  </metadata>
  <defs
     id="defs8" />
  <sodipodi:namedview
     pagecolor="#ffffff"
     bordercolor="#666666"
     borderopacity="1"
     objecttolerance="10"
     gridtolerance="10"
     guidetolerance="10"
     inkscape:pageopacity="0"
     inkscape:pageshadow="2"
     inkscape:window-width="1366"
     inkscape:window-height="713"
     id="namedview6"
     showgrid="false"
     inkscape:zoom="4.9166667"
     inkscape:cx="24"
     inkscape:cy="24"
     inkscape:window-x="0"
     inkscape:window-y="30"
     inkscape:window-maximized="1"
     inkscape:current-layer="svg2"
     inkscape:snap-bbox="true"
     inkscape:bbox-paths="true"
     inkscape:bbox-nodes="true"
     inkscape:snap-page="true" />
  <path
     d="M 10 0 C 7.79 0 6 1.79 6 4 L 6 32 C 6 34.21 7.79 36 10 36 L 38 36 C 40.21 36 42 34.21 42 32 L 42 8 L 34 0 L 10 0 z M 10 4 L 30 4 L 30 12 L 10 12 L 10 4 z M 24 20 C 27.31 20 30 22.69 30 26 C 30 29.31 27.31 32 24 32 C 20.69 32 18 29.31 18 26 C 18 22.69 20.69 20 24 20 z M 12 40 C 9.79 40 8 41.79 8 44 C 8 46.21 9.79 48 12 48 C 14.21 48 16 46.21 16 44 C 16 41.79 14.21 40 12 40 z M 24 40 C 21.79 40 20 41.79 20 44 C 20 46.21 21.79 48 24 48 C 26.21 48 28 46.21 28 44 C 28 41.79 26.21 40 24 40 z M 36 40 C 33.79 40 32 41.79 32 44 C 32 46.21 33.79 48 36 48 C 38.21 48 40 46.21 40 44 C 40 41.79 38.21 40 36 40 z "
     id="path4" />
  <g
     style="fill:#FFEB3B"
     id="g4148"
     transform="translate(0,20)" />
</svg>
